assets/icons/qvision/file_upload.svg

<svg xmlns="http://www.w3.org/2000/svg" height="24" viewBox="0 0 24 24" width="24"><path d="M0 0h24v24H0z" fill="none"/><path d="M9 16h6v-6h4l-7-7-7 7h4zm-4 2h14v2H5z"/></svg>

<svg width="24" height="24" viewBox="0 0 24 24" fill="none" xmlns="http://www.w3.org/2000/svg">
<g clip-path="url(#clip0_147_2868)">
<path d="M9 16H15V10H19L12 3L5 10H9V16ZM5 18H19V20H5V18Z" fill="#323232"/>
</g>
<defs>
<clipPath id="clip0_147_2868">
<rect width="24" height="24" fill="white"/>
</clipPath>
</defs>
</svg>
